X: 3514
T: Biddy The Bold
R: jig
M: 6/8
K: Gmajor
DGB d2d|dBG g2e|dBG DGB|cBc A2d
DGB d2 e|dBG g2e|dBG DGB|AGF G3||
d2g gfg|agf efg|dBG DGB|cBc ABc|
d2g gfg|agf efg|dBG DGB|AGF GBc|
d2g gfg|agf efg|dBG DGB|cBc A2d|
DGB d2 d|dBG g2e|dBG DGB|AGF G3||

